svgs/solid/square-caret-down.svg

<svg xmlns="http://www.w3.org/2000/svg" viewBox="0 0 448 512"><!-- Font Awesome Pro 6.0.0-alpha2 by @fontawesome - https://fontawesome.com License - https://fontawesome.com/license (Commercial License) --><path d="M384 32H64C28.654 32 0 60.652 0 96V416C0 451.344 28.654 480 64 480H384C419.346 480 448 451.344 448 416V96C448 60.652 419.346 32 384 32ZM345.594 232.344L241.594 344.344C237.031 349.219 230.688 352 224 352S210.969 349.219 206.406 344.344L102.406 232.344C95.906 225.344 94.188 215.156 98 206.406C101.812 197.656 110.469 192 120 192H328C337.531 192 346.188 197.656 350 206.406C353.812 215.156 352.094 225.344 345.594 232.344Z"/></svg>

<svg xmlns="http://www.w3.org/2000/svg" viewBox="0 0 448 512"><!--! Font Awesome Pro 6.0.0-alpha3 by @fontawesome - https://fontawesome.com License - https://fontawesome.com/license (Commercial License) --><path d="M384 32H64C28.65 32 0 60.65 0 96v320c0 35.34 28.65 64 64 64h320c35.35 0 64-28.66 64-64V96C448 60.65 419.3 32 384 32zM345.6 232.3l-104 112C237 349.2 230.7 352 224 352s-13.03-2.781-17.59-7.656l-104-112c-6.5-7-8.219-17.19-4.407-25.94C101.8 197.7 110.5 192 120 192h208c9.531 0 18.19 5.656 21.1 14.41C353.8 215.2 352.1 225.3 345.6 232.3z"/></svg>
